**kern	**kern
*staff2	*staff1
*clefF4	*clefG2
*k[]	*k[]
*M3/4	*M3/4
*C:	*C:
=-	=-
4r	4b 4dd
=	=
2.G	2b 2dd
.	4b 4dd
=11	=11
2.A	2e 2a 2cc
.	4e 4a 4cc
=12	=12
4D	2.d [2.f# [2.a
4F#	.
4A	.
=13	=13
4d	2f#] 2a]
4A	.
4F# 4c	4dd
=14	=14
2G 2B	2b
4B 4d	4g
=15	=15
2E 2e	2g 2cc
4C 4c	4g 4ee
=16	=16
2D 2d	2g 2b
4D 4c	4f# 4a
=17	=17
2.G 2.B	2.g
=	=
*-	*-
